X:5
T:Scots Bonnet. VWMLa.005
%%VWML:Anon2-3049-p4-0
F:http://www.vwml.org/record/Anon2/3049/p4
S:Anon. MS, late 18thC, Vaughan Williams Mem. Library
O:England;Yorkshire
Z:vmp/efdss.Simon Wilson. Reviewed PJH 2008.
M:C|
L:1/8
Q:2/4=60
K:A
A>Bc>d e>cd>c|B>cd>e f/f/ff2|\
B>cd>e f>ga>f|e>cd>B A/A/AA2:|
|:c>AB>c B>GF>E|c>AB>c F/F/FF2|\
c>AB>c B>GF>E|e>cd>B AA/A/A2:|
|:a>ec>A aecA|B>AB>c FF/F/F2|\
a>ec>A aecA|e>cd>B AA/A/A2:|
